!!!OTL: Untreue
!!!ARE: Europa, Mitteleuropa, Deutschland
!!!SCT: A0215A
!!!YEM: Copyright 1995, estate of Helmut Schaffrath.
**kern
*ICvox
*Ivox
!! Mixed meters:  4/2; 6/2
*M6/2
*k[f#]
*e:
{2a
=1
2a
2a
2ccn
2ccn
=2
1b
2a}
{2a
=3
1a
2e
2gn
1fn
=4
*M4/2
1.e}
{2a
=5
2a
2a
2ccn
2ccn
=6
1b
2a}
{2a
=7
*M6/2
1a
2e
2gn
1fn
=8
*M4/2
1.e}
{2ccn
=9
*M6/2
2ccn
1ccn
1b
2ccn
=10
1.ddn
4ccn
4b
1a
=11
*M4/2
1gn}
{1ccn
=12
1b
2ccn
[2ddn
=13
2ddn]
1ccn
2b
=14
1ccn
2r}
{2ccn
=15
*M6/2
1ddn
1ddn
1ee
=16
*M4/2
2ddn
1ccn
4b
4a
=17
1b
1a}
=18
{1b
=19
1ccn
2gn
[2a
=20
2a]
2gn
1fn
=21
1.e}
==
!!!AGN: Romanze, Ballade, Lied
!! Gassenhawerlin 1535 No. 14
!!!ONB: ESAC (Essen Associative Code) Database: ALTDEU
!!!AMT: irregular
!!!AIN: vox
!!!EED: Helmut Schaffrath
!!!EEV: 1.0
*-
